X:51
T: der Badchen Freylach
O:klezmer
M: 2/4
L: 1/16
B: Stacy Phillips, Mel May's Klezmer Collection p.79.
K: Edor^A
|: "Em"EB,EG ABAG | {A}B2{A}B2 GFE2 \
| EB,EG ABAG | {A}B4 B4- \
| BB,EG ABAG | {A}B2{A}B2 GFE2 |
| "B7"FGAG FEFG | "Em"E8 \
:: "Em"Bcdc edcB | ABcd B4 \
| edcB ABcd | B4 B4 |
| Bcdc edcB | ABcd B4 \
|1 Bcdc "B7"Bc ((3GFE) | "Em"FGE2- E4 \
:|2 ABcB "B7"ABGF | "Em"E8 |]





